0. ! TACO Target Robot: GORT
MODULE MainModule
VAR speeddata speed:=[10,50,5000,1000];
PERS tooldata extruder := [TRUE, [[0,-1.55,237.95], [1,0,0,0]], [1,[0.10,0.00,0.00],[1,0,0,0],0,0,0]];
PROC Main()
ConfL \Off;
ConfJ \Off;
MoveL [[543.4,120.49,300],[0,-0.695372,0.71865,0],[0,-1,-1,0],[0,9E9,9E9,9E9,9E9,9E9]],speed,z0,extruder\WObj:=WObj0;
MoveL [[531.86,127.76,300],[0,-0.282114,0.959381,0],[0,-1,-1,0],[0,9E9,9E9,9E9,9E9,9E9]],speed,z0,extruder\WObj:=WObj0;
MoveL [[520.46,135.24,300],[0,-0.290739,0.956803,0],[0,-1,-1,0],[0,9E9,9E9,9E9,9E9,9E9]],speed,z0,extruder\WObj:=WObj0;
MoveL [[509.19,142.93,300],[0,-0.298587,0.954383,0],[0,-1,-1,0],[0,9E9,9E9,9E9,9E9,9E9]],speed,z0,extruder\WObj:=WObj0;
MoveL [[498.05,150.79,300],[0,-0.305787,0.9521,0],[0,-1,-1,0],[0,9E9,9E9,9E9,9E9,9E9]],speed,z0,extruder\WObj:=WObj0;
MoveL [[494.76,148.68,300],[0,0.832916,0.553399,0],[0,-1,-1,0],[0,9E9,9E9,9E9,9E9,9E9]],speed,z0,extruder\WObj:=WObj0;
MoveL [[500.78,136.45,300],[0,0.863775,0.503878,0],[0,-1,-1,0],[0,9E9,9E9,9E9,9E9,9E9]],speed,z0,extruder\WObj:=WObj0;
MoveL [[508.13,124.97,300],[0,0.88975,0.456447,0],[0,-1,-1,0],[0,9E9,9E9,9E9,9E9,9E9]],speed,z0,extruder\WObj:=WObj0;
MoveL [[516.63,114.31,300],[0,0.911346,0.411642,0],[0,-1,-1,0],[0,9E9,9E9,9E9,9E9,9E9]],speed,z0,extruder\WObj:=WObj0;
MoveL [[526.11,104.51,300],[0,0.929094,0.369843,0],[0,-1,-1,0],[0,9E9,9E9,9E9,9E9,9E9]],speed,z0,extruder\WObj:=WObj0;
MoveL [[524.02,93.56,300],[0,0.503533,0.863976,0],[0,-1,-1,0],[0,9E9,9E9,9E9,9E9,9E9]],speed,z0,extruder\WObj:=WObj0;
MoveL [[517.86,81.4,300],[0,0.543644,0.839316,0],[0,-1,-1,0],[0,9E9,9E9,9E9,9E9,9E9]],speed,z0,extruder\WObj:=WObj0;
MoveL [[506.3,88.58,300],[0,-0.29309,0.956085,0],[0,-1,-1,0],[0,9E9,9E9,9E9,9E9,9E9]],speed,z0,extruder\WObj:=WObj0;
MoveL [[495.33,96.69,300],[0,-0.333776,0.942652,0],[0,-1,-1,0],[0,9E9,9E9,9E9,9E9,9E9]],speed,z0,extruder\WObj:=WObj0;
MoveL [[485.16,105.76,300],[0,-0.3797,0.92511,0],[0,-1,-1,0],[0,9E9,9E9,9E9,9E9,9E9]],speed,z0,extruder\WObj:=WObj0;
MoveL [[476.01,115.86,300],[0,-0.431461,0.902131,0],[0,-1,-1,0],[0,9E9,9E9,9E9,9E9,9E9]],speed,z0,extruder\WObj:=WObj0;
MoveL [[468.13,126.99,300],[0,-0.487935,0.87288,0],[0,-1,-1,0],[0,9E9,9E9,9E9,9E9,9E9]],speed,z0,extruder\WObj:=WObj0;
MoveL [[461.75,139.03,300],[0,-0.542201,0.840249,0],[0,-1,-1,0],[0,9E9,9E9,9E9,9E9,9E9]],speed,z0,extruder\WObj:=WObj0;
MoveL [[456.87,151.76,300],[0,-0.589731,0.8076,0],[0,-1,-1,0],[0,9E9,9E9,9E9,9E9,9E9]],speed,z0,extruder\WObj:=WObj0;
MoveL [[453.41,164.95,300],[0,-0.630323,0.776333,0],[0,-1,-1,0],[0,9E9,9E9,9E9,9E9,9E9]],speed,z0,extruder\WObj:=WObj0;
MoveL [[451.23,178.41,300],[0,-0.66478,0.74704,0],[0,-1,-1,0],[0,9E9,9E9,9E9,9E9,9E9]],speed,z0,extruder\WObj:=WObj0;
MoveL [[446.55,190.14,300],[0,-0.333771,0.942654,0],[0,-1,-1,0],[0,9E9,9E9,9E9,9E9,9E9]],speed,z0,extruder\WObj:=WObj0;
MoveL [[435.99,198.78,300],[0,-0.338719,0.940888,0],[0,-1,-1,0],[0,9E9,9E9,9E9,9E9,9E9]],speed,z0,extruder\WObj:=WObj0;
MoveL [[425.53,207.53,300],[0,-0.343431,0.939178,0],[0,-1,-1,0],[0,9E9,9E9,9E9,9E9,9E9]],speed,z0,extruder\WObj:=WObj0;
MoveL [[415.15,216.38,300],[0,-0.347935,0.937519,0],[0,-1,-1,0],[0,9E9,9E9,9E9,9E9,9E9]],speed,z0,extruder\WObj:=WObj0;
MoveL [[412.46,206.62,300],[0,0.686779,0.726867,0],[0,-1,-1,0],[0,9E9,9E9,9E9,9E9,9E9]],speed,z0,extruder\WObj:=WObj0;
MoveL [[412.12,192.99,300],[0,0.710117,0.704083,0],[0,-1,-1,0],[0,9E9,9E9,9E9,9E9,9E9]],speed,z0,extruder\WObj:=WObj0;
MoveL [[412.72,179.37,300],[0,0.734795,0.678289,0],[0,-1,-1,0],[0,9E9,9E9,9E9,9E9,9E9]],speed,z0,extruder\WObj:=WObj0;
MoveL [[414.33,165.83,300],[0,0.76085,0.648928,0],[0,-1,-1,0],[0,9E9,9E9,9E9,9E9,9E9]],speed,z0,extruder\WObj:=WObj0;
MoveL [[417.05,152.47,300],[0,0.788107,0.615538,0],[0,-1,-1,0],[0,9E9,9E9,9E9,9E9,9E9]],speed,z0,extruder\WObj:=WObj0;
MoveL [[420.97,139.41,300],[0,0.816259,0.577686,0],[0,-1,-1,0],[0,9E9,9E9,9E9,9E9,9E9]],speed,z0,extruder\WObj:=WObj0;
MoveL [[426.15,126.8,300],[0,0.845341,0.534227,0],[0,-1,-1,0],[0,9E9,9E9,9E9,9E9,9E9]],speed,z0,extruder\WObj:=WObj0;
MoveL [[432.7,114.84,300],[0,0.874802,0.484481,0],[0,-1,-1,0],[0,9E9,9E9,9E9,9E9,9E9]],speed,z0,extruder\WObj:=WObj0;
MoveL [[440.63,103.76,300],[0,0.903402,0.428794,0],[0,-1,-1,0],[0,9E9,9E9,9E9,9E9,9E9]],speed,z0,extruder\WObj:=WObj0;
MoveL [[449.91,93.78,300],[0,0.929401,0.369072,0],[0,-1,-1,0],[0,9E9,9E9,9E9,9E9,9E9]],speed,z0,extruder\WObj:=WObj0;
MoveL [[460.4,85.07,300],[0,0.950276,0.311408,0],[0,-1,-1,0],[0,9E9,9E9,9E9,9E9,9E9]],speed,z0,extruder\WObj:=WObj0;
MoveL [[471.8,77.59,300],[0,0.964919,0.262548,0],[0,-1,-1,0],[0,9E9,9E9,9E9,9E9,9E9]],speed,z0,extruder\WObj:=WObj0;
MoveL [[483.84,71.2,300],[0,0.975128,0.221642,0],[0,-1,-1,0],[0,9E9,9E9,9E9,9E9,9E9]],speed,z0,extruder\WObj:=WObj0;
MoveL [[496.34,65.75,300],[0,0.982216,0.187753,0],[0,-1,-1,0],[0,9E9,9E9,9E9,9E9,9E9]],speed,z0,extruder\WObj:=WObj0;
MoveL [[509.16,61.1,300],[0,0.98718,0.159613,0],[0,-1,-1,0],[0,9E9,9E9,9E9,9E9,9E9]],speed,z0,extruder\WObj:=WObj0;
MoveL [[508.37,48.71,300],[0,0.662681,0.748902,0],[0,-1,-1,0],[0,9E9,9E9,9E9,9E9,9E9]],speed,z0,extruder\WObj:=WObj0;
MoveL [[501.99,41.7,300],[0,-0.069576,0.997577,0],[0,-1,-1,0],[0,9E9,9E9,9E9,9E9,9E9]],speed,z0,extruder\WObj:=WObj0;
MoveL [[488.52,43.87,300],[0,-0.090683,0.99588,0],[0,-1,-1,0],[0,9E9,9E9,9E9,9E9,9E9]],speed,z0,extruder\WObj:=WObj0;
MoveL [[475.18,46.68,300],[0,-0.117366,0.993089,0],[0,-1,-1,0],[0,9E9,9E9,9E9,9E9,9E9]],speed,z0,extruder\WObj:=WObj0;
MoveL [[462.03,50.29,300],[0,-0.150787,0.988566,0],[0,-1,-1,0],[0,9E9,9E9,9E9,9E9,9E9]],speed,z0,extruder\WObj:=WObj0;
MoveL [[449.19,54.88,300],[0,-0.192876,0.981223,0],[0,-1,-1,0],[0,9E9,9E9,9E9,9E9,9E9]],speed,z0,extruder\WObj:=WObj0;
MoveL [[436.86,60.69,300],[0,-0.245323,0.969441,0],[0,-1,-1,0],[0,9E9,9E9,9E9,9E9,9E9]],speed,z0,extruder\WObj:=WObj0;
MoveL [[425.27,67.87,300],[0,-0.302892,0.953025,0],[0,-1,-1,0],[0,9E9,9E9,9E9,9E9,9E9]],speed,z0,extruder\WObj:=WObj0;
MoveL [[414.65,76.41,300],[0,-0.360683,0.932688,0],[0,-1,-1,0],[0,9E9,9E9,9E9,9E9,9E9]],speed,z0,extruder\WObj:=WObj0;
MoveL [[405.14,86.17,300],[0,-0.416261,0.909245,0],[0,-1,-1,0],[0,9E9,9E9,9E9,9E9,9E9]],speed,z0,extruder\WObj:=WObj0;
MoveL [[396.84,96.99,300],[0,-0.467718,0.883878,0],[0,-1,-1,0],[0,9E9,9E9,9E9,9E9,9E9]],speed,z0,extruder\WObj:=WObj0;
MoveL [[389.8,108.66,300],[0,-0.514706,0.857367,0],[0,-1,-1,0],[0,9E9,9E9,9E9,9E9,9E9]],speed,z0,extruder\WObj:=WObj0;
MoveL [[384.01,121.01,300],[0,-0.557471,0.830196,0],[0,-1,-1,0],[0,9E9,9E9,9E9,9E9,9E9]],speed,z0,extruder\WObj:=WObj0;
MoveL [[379.46,133.86,300],[0,-0.595688,0.803216,0],[0,-1,-1,0],[0,9E9,9E9,9E9,9E9,9E9]],speed,z0,extruder\WObj:=WObj0;
MoveL [[376.07,147.07,300],[0,-0.629505,0.776997,0],[0,-1,-1,0],[0,9E9,9E9,9E9,9E9,9E9]],speed,z0,extruder\WObj:=WObj0;
MoveL [[373.77,160.51,300],[0,-0.659373,0.751816,0],[0,-1,-1,0],[0,9E9,9E9,9E9,9E9,9E9]],speed,z0,extruder\WObj:=WObj0;
MoveL [[372.48,174.08,300],[0,-0.685736,0.727851,0],[0,-1,-1,0],[0,9E9,9E9,9E9,9E9,9E9]],speed,z0,extruder\WObj:=WObj0;
MoveL [[372.12,187.71,300],[0,0.708769,-0.70544,0],[0,-1,-1,0],[0,9E9,9E9,9E9,9E9,9E9]],speed,z0,extruder\WObj:=WObj0;
MoveL [[372.58,201.34,300],[0,0.728943,-0.684574,0],[0,-1,-1,0],[0,9E9,9E9,9E9,9E9,9E9]],speed,z0,extruder\WObj:=WObj0;
MoveL [[373.8,214.93,300],[0,0.746702,-0.665158,0],[0,-1,-1,0],[0,9E9,9E9,9E9,9E9,9E9]],speed,z0,extruder\WObj:=WObj0;
MoveL [[375.7,228.43,300],[0,0.762464,-0.64703,0],[0,-1,-1,0],[0,9E9,9E9,9E9,9E9,9E9]],speed,z0,extruder\WObj:=WObj0;
MoveL [[378.22,241.83,300],[0,0.776591,-0.630005,0],[0,-1,-1,0],[0,9E9,9E9,9E9,9E9,9E9]],speed,z0,extruder\WObj:=WObj0;
MoveL [[374.17,252.95,300],[0,-0.364418,0.931235,0],[0,-1,-1,0],[0,9E9,9E9,9E9,9E9,9E9]],speed,z0,extruder\WObj:=WObj0;
MoveL [[364.2,262.25,300],[0,-0.36819,0.929751,0],[0,-1,-1,0],[0,9E9,9E9,9E9,9E9,9E9]],speed,z0,extruder\WObj:=WObj0;
MoveL [[354.29,271.63,300],[0,-0.371862,0.928288,0],[0,-1,-1,0],[0,9E9,9E9,9E9,9E9,9E9]],speed,z0,extruder\WObj:=WObj0;
MoveL [[346.59,272.49,300],[0,0.589664,0.807649,0],[0,-1,-1,0],[0,9E9,9E9,9E9,9E9,9E9]],speed,z0,extruder\WObj:=WObj0;
MoveL [[342.68,259.42,300],[0,0.604871,0.796324,0],[0,-1,-1,0],[0,9E9,9E9,9E9,9E9,9E9]],speed,z0,extruder\WObj:=WObj0;
MoveL [[339.27,246.22,300],[0,0.6197,0.784839,0],[0,-1,-1,0],[0,9E9,9E9,9E9,9E9,9E9]],speed,z0,extruder\WObj:=WObj0;
MoveL [[336.37,232.89,300],[0,0.635361,0.772215,0],[0,-1,-1,0],[0,9E9,9E9,9E9,9E9,9E9]],speed,z0,extruder\WObj:=WObj0;
MoveL [[334.03,219.46,300],[0,0.651491,0.758657,0],[0,-1,-1,0],[0,9E9,9E9,9E9,9E9,9E9]],speed,z0,extruder\WObj:=WObj0;
MoveL [[332.26,205.93,300],[0,0.668136,0.744039,0],[0,-1,-1,0],[0,9E9,9E9,9E9,9E9,9E9]],speed,z0,extruder\WObj:=WObj0;
MoveL [[331.12,192.34,300],[0,0.685563,0.728013,0],[0,-1,-1,0],[0,9E9,9E9,9E9,9E9,9E9]],speed,z0,extruder\WObj:=WObj0;
MoveL [[330.64,178.71,300],[0,0.703863,0.710336,0],[0,-1,-1,0],[0,9E9,9E9,9E9,9E9,9E9]],speed,z0,extruder\WObj:=WObj0;
MoveL [[330.89,165.08,300],[0,0.723355,0.690476,0],[0,-1,-1,0],[0,9E9,9E9,9E9,9E9,9E9]],speed,z0,extruder\WObj:=WObj0;
MoveL [[331.93,151.48,300],[0,0.744226,0.667928,0],[0,-1,-1,0],[0,9E9,9E9,9E9,9E9,9E9]],speed,z0,extruder\WObj:=WObj0;
MoveL [[333.86,137.98,300],[0,0.766574,0.642156,0],[0,-1,-1,0],[0,9E9,9E9,9E9,9E9,9E9]],speed,z0,extruder\WObj:=WObj0;
MoveL [[336.75,124.65,300],[0,0.790441,0.612538,0],[0,-1,-1,0],[0,9E9,9E9,9E9,9E9,9E9]],speed,z0,extruder\WObj:=WObj0;
MoveL [[340.69,111.6,300],[0,0.815637,0.578565,0],[0,-1,-1,0],[0,9E9,9E9,9E9,9E9,9E9]],speed,z0,extruder\WObj:=WObj0;
MoveL [[345.79,98.96,300],[0,0.841611,0.540084,0],[0,-1,-1,0],[0,9E9,9E9,9E9,9E9,9E9]],speed,z0,extruder\WObj:=WObj0;
MoveL [[352.07,86.86,300],[0,0.867528,0.497389,0],[0,-1,-1,0],[0,9E9,9E9,9E9,9E9,9E9]],speed,z0,extruder\WObj:=WObj0;
MoveL [[359.57,75.47,300],[0,0.89273,0.450592,0],[0,-1,-1,0],[0,9E9,9E9,9E9,9E9,9E9]],speed,z0,extruder\WObj:=WObj0;
MoveL [[368.26,64.97,300],[0,0.916315,0.400459,0],[0,-1,-1,0],[0,9E9,9E9,9E9,9E9,9E9]],speed,z0,extruder\WObj:=WObj0;
MoveL [[378.06,55.5,300],[0,0.937396,0.348265,0],[0,-1,-1,0],[0,9E9,9E9,9E9,9E9,9E9]],speed,z0,extruder\WObj:=WObj0;
MoveL [[388.87,47.19,300],[0,0.95549,0.295023,0],[0,-1,-1,0],[0,9E9,9E9,9E9,9E9,9E9]],speed,z0,extruder\WObj:=WObj0;
MoveL [[400.54,40.15,300],[0,0.97039,0.241542,0],[0,-1,-1,0],[0,9E9,9E9,9E9,9E9,9E9]],speed,z0,extruder\WObj:=WObj0;
MoveL [[412.91,34.42,300],[0,0.981944,0.189171,0],[0,-1,-1,0],[0,9E9,9E9,9E9,9E9,9E9]],speed,z0,extruder\WObj:=WObj0;
MoveL [[425.81,30.01,300],[0,0.990241,0.139367,0],[0,-1,-1,0],[0,9E9,9E9,9E9,9E9,9E9]],speed,z0,extruder\WObj:=WObj0;
MoveL [[439.08,26.86,300],[0,0.995543,0.094314,0],[0,-1,-1,0],[0,9E9,9E9,9E9,9E9,9E9]],speed,z0,extruder\WObj:=WObj0;
MoveL [[452.56,24.81,300],[0,0.998321,0.057921,0],[0,-1,-1,0],[0,9E9,9E9,9E9,9E9,9E9]],speed,z0,extruder\WObj:=WObj0;
MoveL [[466.15,23.63,300],[0,0.999558,0.029724,0],[0,-1,-1,0],[0,9E9,9E9,9E9,9E9,9E9]],speed,z0,extruder\WObj:=WObj0;
MoveL [[479.77,23.12,300],[0,0.999967,0.008183,0],[0,-1,-1,0],[0,9E9,9E9,9E9,9E9,9E9]],speed,z0,extruder\WObj:=WObj0;
MoveL [[493.41,23.14,300],[0,0.999963,-0.008621,0],[0,-1,-1,0],[0,9E9,9E9,9E9,9E9,9E9]],speed,z0,extruder\WObj:=WObj0;
MoveL [[507.05,23.56,300],[0,0.999778,-0.021048,0],[0,-1,-1,0],[0,9E9,9E9,9E9,9E9,9E9]],speed,z0,extruder\WObj:=WObj0;
MoveL [[513.69,13.38,300],[0,0.864335,0.502917,0],[0,-1,-1,0],[0,9E9,9E9,9E9,9E9,9E9]],speed,z0,extruder\WObj:=WObj0;
MoveL [[506.45,8.17,300],[0,0.092916,0.995674,0],[0,-1,-1,0],[0,9E9,9E9,9E9,9E9,9E9]],speed,z0,extruder\WObj:=WObj0;
MoveL [[493.03,5.76,300],[0,0.084526,0.996421,0],[0,-1,-1,0],[0,9E9,9E9,9E9,9E9,9E9]],speed,z0,extruder\WObj:=WObj0;
MoveL [[479.56,3.61,300],[0,0.072656,0.997357,0],[0,-1,-1,0],[0,9E9,9E9,9E9,9E9,9E9]],speed,z0,extruder\WObj:=WObj0;
MoveL [[466.04,1.84,300],[0,0.056411,0.998408,0],[0,-1,-1,0],[0,9E9,9E9,9E9,9E9,9E9]],speed,z0,extruder\WObj:=WObj0;
MoveL [[452.46,0.58,300],[0,0.035171,0.999381,0],[0,-1,-1,0],[0,9E9,9E9,9E9,9E9,9E9]],speed,z0,extruder\WObj:=WObj0;
MoveL [[438.83,-0.01,300],[0,0.00727,0.999974,0],[0,-1,-1,0],[0,9E9,9E9,9E9,9E9,9E9]],speed,z0,extruder\WObj:=WObj0;
MoveL [[425.2,0.24,300],[0,-0.02684,0.99964,0],[0,-1,-1,0],[0,9E9,9E9,9E9,9E9,9E9]],speed,z0,extruder\WObj:=WObj0;
MoveL [[411.62,1.48,300],[0,-0.064829,0.997896,0],[0,-1,-1,0],[0,9E9,9E9,9E9,9E9,9E9]],speed,z0,extruder\WObj:=WObj0;
MoveL [[398.18,3.8,300],[0,-0.106432,0.99432,0],[0,-1,-1,0],[0,9E9,9E9,9E9,9E9,9E9]],speed,z0,extruder\WObj:=WObj0;
MoveL [[385,7.28,300],[0,-0.150902,0.988549,0],[0,-1,-1,0],[0,9E9,9E9,9E9,9E9,9E9]],speed,z0,extruder\WObj:=WObj0;
MoveL [[372.19,11.96,300],[0,-0.197945,0.980213,0],[0,-1,-1,0],[0,9E9,9E9,9E9,9E9,9E9]],speed,z0,extruder\WObj:=WObj0;
MoveL [[359.91,17.87,300],[0,-0.247533,0.968879,0],[0,-1,-1,0],[0,9E9,9E9,9E9,9E9,9E9]],speed,z0,extruder\WObj:=WObj0;
MoveL [[348.31,25.04,300],[0,-0.299111,0.954218,0],[0,-1,-1,0],[0,9E9,9E9,9E9,9E9,9E9]],speed,z0,extruder\WObj:=WObj0;
MoveL [[337.56,33.42,300],[0,-0.35109,0.936342,0],[0,-1,-1,0],[0,9E9,9E9,9E9,9E9,9E9]],speed,z0,extruder\WObj:=WObj0;
MoveL [[327.8,42.94,300],[0,-0.402117,0.915588,0],[0,-1,-1,0],[0,9E9,9E9,9E9,9E9,9E9]],speed,z0,extruder\WObj:=WObj0;
MoveL [[319.13,53.46,300],[0,-0.450925,0.892562,0],[0,-1,-1,0],[0,9E9,9E9,9E9,9E9,9E9]],speed,z0,extruder\WObj:=WObj0;
MoveL [[311.62,64.84,300],[0,-0.495918,0.868369,0],[0,-1,-1,0],[0,9E9,9E9,9E9,9E9,9E9]],speed,z0,extruder\WObj:=WObj0;
MoveL [[305.27,76.9,300],[0,-0.536299,0.844028,0],[0,-1,-1,0],[0,9E9,9E9,9E9,9E9,9E9]],speed,z0,extruder\WObj:=WObj0;
MoveL [[300.02,89.48,300],[0,-0.572028,0.820234,0],[0,-1,-1,0],[0,9E9,9E9,9E9,9E9,9E9]],speed,z0,extruder\WObj:=WObj0;
MoveL [[295.81,102.46,300],[0,-0.603428,0.797418,0],[0,-1,-1,0],[0,9E9,9E9,9E9,9E9,9E9]],speed,z0,extruder\WObj:=WObj0;
MoveL [[292.58,115.7,300],[0,-0.631084,0.775714,0],[0,-1,-1,0],[0,9E9,9E9,9E9,9E9,9E9]],speed,z0,extruder\WObj:=WObj0;
MoveL [[290.24,129.14,300],[0,-0.655723,0.755001,0],[0,-1,-1,0],[0,9E9,9E9,9E9,9E9,9E9]],speed,z0,extruder\WObj:=WObj0;
MoveL [[288.74,142.69,300],[0,-0.677907,0.735147,0],[0,-1,-1,0],[0,9E9,9E9,9E9,9E9,9E9]],speed,z0,extruder\WObj:=WObj0;
MoveL [[288.02,156.31,300],[0,-0.697974,0.716123,0],[0,-1,-1,0],[0,9E9,9E9,9E9,9E9,9E9]],speed,z0,extruder\WObj:=WObj0;
MoveL [[288.02,169.95,300],[0,0.716251,-0.697842,0],[0,-1,-1,0],[0,9E9,9E9,9E9,9E9,9E9]],speed,z0,extruder\WObj:=WObj0;
MoveL [[288.71,183.57,300],[0,0.733025,-0.680202,0],[0,-1,-1,0],[0,9E9,9E9,9E9,9E9,9E9]],speed,z0,extruder\WObj:=WObj0;
MoveL [[290.05,197.14,300],[0,0.748528,-0.663104,0],[0,-1,-1,0],[0,9E9,9E9,9E9,9E9,9E9]],speed,z0,extruder\WObj:=WObj0;
MoveL [[286.44,195.98,300],[0,0.481654,0.876361,0],[0,-1,-1,0],[0,9E9,9E9,9E9,9E9,9E9]],speed,z0,extruder\WObj:=WObj0;
MoveL [[279.26,184.39,300],[0,0.491391,0.870939,0],[0,-1,-1,0],[0,9E9,9E9,9E9,9E9,9E9]],speed,z0,extruder\WObj:=WObj0;
MoveL [[272.34,172.63,300],[0,0.501168,0.86535,0],[0,-1,-1,0],[0,9E9,9E9,9E9,9E9,9E9]],speed,z0,extruder\WObj:=WObj0;
MoveL [[265.68,160.73,300],[0,0.511025,0.859566,0],[0,-1,-1,0],[0,9E9,9E9,9E9,9E9,9E9]],speed,z0,extruder\WObj:=WObj0;
MoveL [[259.31,148.67,300],[0,0.520961,0.85358,0],[0,-1,-1,0],[0,9E9,9E9,9E9,9E9,9E9]],speed,z0,extruder\WObj:=WObj0;
MoveL [[253.21,136.47,300],[0,0.530998,0.847373,0],[0,-1,-1,0],[0,9E9,9E9,9E9,9E9,9E9]],speed,z0,extruder\WObj:=WObj0;
MoveL [[247.41,124.12,300],[0,0.541173,0.840911,0],[0,-1,-1,0],[0,9E9,9E9,9E9,9E9,9E9]],speed,z0,extruder\WObj:=WObj0;
MoveL [[247.11,110.84,300],[0,0.75098,0.660325,0],[0,-1,-1,0],[0,9E9,9E9,9E9,9E9,9E9]],speed,z0,extruder\WObj:=WObj0;
MoveL [[249.28,97.38,300],[0,0.771571,0.636143,0],[0,-1,-1,0],[0,9E9,9E9,9E9,9E9,9E9]],speed,z0,extruder\WObj:=WObj0;
MoveL [[252.33,84.09,300],[0,0.792702,0.609609,0],[0,-1,-1,0],[0,9E9,9E9,9E9,9E9,9E9]],speed,z0,extruder\WObj:=WObj0;
MoveL [[256.3,71.04,300],[0,0.814336,0.580394,0],[0,-1,-1,0],[0,9E9,9E9,9E9,9E9,9E9]],speed,z0,extruder\WObj:=WObj0;
MoveL [[261.24,58.33,300],[0,0.836332,0.548224,0],[0,-1,-1,0],[0,9E9,9E9,9E9,9E9,9E9]],speed,z0,extruder\WObj:=WObj0;
MoveL [[267.19,46.06,300],[0,0.858462,0.512877,0],[0,-1,-1,0],[0,9E9,9E9,9E9,9E9,9E9]],speed,z0,extruder\WObj:=WObj0;
MoveL [[274.18,34.35,300],[0,0.880514,0.474021,0],[0,-1,-1,0],[0,9E9,9E9,9E9,9E9,9E9]],speed,z0,extruder\WObj:=WObj0;
MoveL [[282.21,23.34,300],[0,0.902238,0.431238,0],[0,-1,-1,0],[0,9E9,9E9,9E9,9E9,9E9]],speed,z0,extruder\WObj:=WObj0;
MoveL [[291.3,13.18,300],[0,0.922998,0.384805,0],[0,-1,-1,0],[0,9E9,9E9,9E9,9E9,9E9]],speed,z0,extruder\WObj:=WObj0;
MoveL [[301.39,4.01,300],[0,0.942066,0.335429,0],[0,-1,-1,0],[0,9E9,9E9,9E9,9E9,9E9]],speed,z0,extruder\WObj:=WObj0;
MoveL [[312.4,-4.02,300],[0,0.958704,0.284406,0],[0,-1,-1,0],[0,9E9,9E9,9E9,9E9,9E9]],speed,z0,extruder\WObj:=WObj0;
MoveL [[324.21,-10.84,300],[0,0.972317,0.233666,0],[0,-1,-1,0],[0,9E9,9E9,9E9,9E9,9E9]],speed,z0,extruder\WObj:=WObj0;
MoveL [[336.65,-16.42,300],[0,0.982755,0.184915,0],[0,-1,-1,0],[0,9E9,9E9,9E9,9E9,9E9]],speed,z0,extruder\WObj:=WObj0;
MoveL [[349.57,-20.77,300],[0,0.990311,0.138865,0],[0,-1,-1,0],[0,9E9,9E9,9E9,9E9,9E9]],speed,z0,extruder\WObj:=WObj0;
MoveL [[362.83,-23.94,300],[0,0.995366,0.096162,0],[0,-1,-1,0],[0,9E9,9E9,9E9,9E9,9E9]],speed,z0,extruder\WObj:=WObj0;
MoveL [[376.31,-26.02,300],[0,0.998367,0.057124,0],[0,-1,-1,0],[0,9E9,9E9,9E9,9E9,9E9]],speed,z0,extruder\WObj:=WObj0;
MoveL [[389.9,-27.08,300],[0,0.99977,0.021449,0],[0,-1,-1,0],[0,9E9,9E9,9E9,9E9,9E9]],speed,z0,extruder\WObj:=WObj0;
MoveL [[403.54,-27.21,300],[0,0.999933,-0.011596,0],[0,-1,-1,0],[0,9E9,9E9,9E9,9E9,9E9]],speed,z0,extruder\WObj:=WObj0;
MoveL [[417.16,-26.48,300],[0,0.999125,-0.041826,0],[0,-1,-1,0],[0,9E9,9E9,9E9,9E9,9E9]],speed,z0,extruder\WObj:=WObj0;
MoveL [[430.71,-24.96,300],[0,0.997598,-0.069272,0],[0,-1,-1,0],[0,9E9,9E9,9E9,9E9,9E9]],speed,z0,extruder\WObj:=WObj0;
MoveL [[444.16,-22.73,300],[0,0.995562,-0.094108,0],[0,-1,-1,0],[0,9E9,9E9,9E9,9E9,9E9]],speed,z0,extruder\WObj:=WObj0;
MoveL [[440.09,-26.4,300],[0,0.249784,0.968302,0],[0,-1,-1,0],[0,9E9,9E9,9E9,9E9,9E9]],speed,z0,extruder\WObj:=WObj0;
MoveL [[428.2,-33.09,300],[0,0.256794,0.966466,0],[0,-1,-1,0],[0,9E9,9E9,9E9,9E9,9E9]],speed,z0,extruder\WObj:=WObj0;
MoveL [[416.41,-39.94,300],[0,0.263262,0.964724,0],[0,-1,-1,0],[0,9E9,9E9,9E9,9E9,9E9]],speed,z0,extruder\WObj:=WObj0;
MoveL [[404.7,-46.94,300],[0,0.269264,0.963067,0],[0,-1,-1,0],[0,9E9,9E9,9E9,9E9,9E9]],speed,z0,extruder\WObj:=WObj0;
MoveL [[393.09,-54.08,300],[0,0.274858,0.961485,0],[0,-1,-1,0],[0,9E9,9E9,9E9,9E9,9E9]],speed,z0,extruder\WObj:=WObj0;
MoveL [[380.07,-57.11,300],[0,0.042587,0.999093,0],[0,-1,-1,0],[0,9E9,9E9,9E9,9E9,9E9]],speed,z0,extruder\WObj:=WObj0;
MoveL [[366.46,-57.87,300],[0,0.012837,0.999918,0],[0,-1,-1,0],[0,9E9,9E9,9E9,9E9,9E9]],speed,z0,extruder\WObj:=WObj0;
MoveL [[352.82,-57.78,300],[0,-0.019965,0.999801,0],[0,-1,-1,0],[0,9E9,9E9,9E9,9E9,9E9]],speed,z0,extruder\WObj:=WObj0;
MoveL [[339.22,-56.76,300],[0,-0.056069,0.998427,0],[0,-1,-1,0],[0,9E9,9E9,9E9,9E9,9E9]],speed,z0,extruder\WObj:=WObj0;
MoveL [[325.74,-54.7,300],[0,-0.095564,0.995423,0],[0,-1,-1,0],[0,9E9,9E9,9E9,9E9,9E9]],speed,z0,extruder\WObj:=WObj0;
MoveL [[312.48,-51.54,300],[0,-0.138504,0.990362,0],[0,-1,-1,0],[0,9E9,9E9,9E9,9E9,9E9]],speed,z0,extruder\WObj:=WObj0;
MoveL [[299.55,-47.2,300],[0,-0.183982,0.98293,0],[0,-1,-1,0],[0,9E9,9E9,9E9,9E9,9E9]],speed,z0,extruder\WObj:=WObj0;
MoveL [[287.09,-41.67,300],[0,-0.231044,0.972943,0],[0,-1,-1,0],[0,9E9,9E9,9E9,9E9,9E9]],speed,z0,extruder\WObj:=WObj0;
MoveL [[275.23,-34.95,300],[0,-0.278621,0.960401,0],[0,-1,-1,0],[0,9E9,9E9,9E9,9E9,9E9]],speed,z0,extruder\WObj:=WObj0;
MoveL [[264.09,-27.09,300],[0,-0.325692,0.945476,0],[0,-1,-1,0],[0,9E9,9E9,9E9,9E9,9E9]],speed,z0,extruder\WObj:=WObj0;
MoveL [[253.77,-18.18,300],[0,-0.371476,0.928443,0],[0,-1,-1,0],[0,9E9,9E9,9E9,9E9,9E9]],speed,z0,extruder\WObj:=WObj0;
MoveL [[244.37,-8.31,300],[0,-0.415724,0.909491,0],[0,-1,-1,0],[0,9E9,9E9,9E9,9E9,9E9]],speed,z0,extruder\WObj:=WObj0;
MoveL [[235.94,2.41,300],[0,-0.457911,0.888998,0],[0,-1,-1,0],[0,9E9,9E9,9E9,9E9,9E9]],speed,z0,extruder\WObj:=WObj0;
MoveL [[228.54,13.86,300],[0,-0.497634,0.867387,0],[0,-1,-1,0],[0,9E9,9E9,9E9,9E9,9E9]],speed,z0,extruder\WObj:=WObj0;
MoveL [[222.18,25.92,300],[0,-0.534691,0.845048,0],[0,-1,-1,0],[0,9E9,9E9,9E9,9E9,9E9]],speed,z0,extruder\WObj:=WObj0;
MoveL [[216.91,37.57,300],[0,0.616159,0.787622,0],[0,-1,-1,0],[0,9E9,9E9,9E9,9E9,9E9]],speed,z0,extruder\WObj:=WObj0;
MoveL [[213.83,24.28,300],[0,0.628707,0.777642,0],[0,-1,-1,0],[0,9E9,9E9,9E9,9E9,9E9]],speed,z0,extruder\WObj:=WObj0;
MoveL [[211.2,10.9,300],[0,0.641742,0.766921,0],[0,-1,-1,0],[0,9E9,9E9,9E9,9E9,9E9]],speed,z0,extruder\WObj:=WObj0;
MoveL [[209.03,-2.57,300],[0,0.655343,0.755332,0],[0,-1,-1,0],[0,9E9,9E9,9E9,9E9,9E9]],speed,z0,extruder\WObj:=WObj0;
MoveL [[207.36,-16.1,300],[0,0.669597,0.742724,0],[0,-1,-1,0],[0,9E9,9E9,9E9,9E9,9E9]],speed,z0,extruder\WObj:=WObj0;
MoveL [[206.23,-29.69,300],[0,0.684596,0.728922,0],[0,-1,-1,0],[0,9E9,9E9,9E9,9E9,9E9]],speed,z0,extruder\WObj:=WObj0;
MoveL [[207.45,-42.67,300],[0,0.912492,0.409095,0],[0,-1,-1,0],[0,9E9,9E9,9E9,9E9,9E9]],speed,z0,extruder\WObj:=WObj0;
MoveL [[217.02,-52.39,300],[0,0.931809,0.362949,0],[0,-1,-1,0],[0,9E9,9E9,9E9,9E9,9E9]],speed,z0,extruder\WObj:=WObj0;
MoveL [[227.51,-61.1,300],[0,0.948644,0.316346,0],[0,-1,-1,0],[0,9E9,9E9,9E9,9E9,9E9]],speed,z0,extruder\WObj:=WObj0;
MoveL [[238.8,-68.74,300],[0,0.962862,0.269995,0],[0,-1,-1,0],[0,9E9,9E9,9E9,9E9,9E9]],speed,z0,extruder\WObj:=WObj0;
MoveL [[250.76,-75.27,300],[0,0.974456,0.22458,0],[0,-1,-1,0],[0,9E9,9E9,9E9,9E9,9E9]],speed,z0,extruder\WObj:=WObj0;
MoveL [[263.28,-80.68,300],[0,0.983537,0.180708,0],[0,-1,-1,0],[0,9E9,9E9,9E9,9E9,9E9]],speed,z0,extruder\WObj:=WObj0;
MoveL [[276.22,-84.97,300],[0,0.990346,0.138617,0],[0,-1,-1,0],[0,9E9,9E9,9E9,9E9,9E9]],speed,z0,extruder\WObj:=WObj0;
MoveL [[289.48,-88.18,300],[0,0.995159,0.098274,0],[0,-1,-1,0],[0,9E9,9E9,9E9,9E9,9E9]],speed,z0,extruder\WObj:=WObj0;
MoveL [[302.94,-90.32,300],[0,0.998195,0.060051,0],[0,-1,-1,0],[0,9E9,9E9,9E9,9E9,9E9]],speed,z0,extruder\WObj:=WObj0;
MoveL [[316.53,-91.47,300],[0,0.999707,0.024192,0],[0,-1,-1,0],[0,9E9,9E9,9E9,9E9,9E9]],speed,z0,extruder\WObj:=WObj0;
MoveL [[330.16,-91.66,300],[0,0.999957,-0.009228,0],[0,-1,-1,0],[0,9E9,9E9,9E9,9E9,9E9]],speed,z0,extruder\WObj:=WObj0;
MoveL [[330.17,-95.74,300],[0,0.300366,0.953824,0],[0,-1,-1,0],[0,9E9,9E9,9E9,9E9,9E9]],speed,z0,extruder\WObj:=WObj0;
MoveL [[319.03,-103.6,300],[0,0.304246,0.952594,0],[0,-1,-1,0],[0,9E9,9E9,9E9,9E9,9E9]],speed,z0,extruder\WObj:=WObj0;
MoveL [[307.94,-111.55,300],[0,0.307951,0.951402,0],[0,-1,-1,0],[0,9E9,9E9,9E9,9E9,9E9]],speed,z0,extruder\WObj:=WObj0;
MoveL [[296.92,-119.58,300],[0,0.3115,0.950246,0],[0,-1,-1,0],[0,9E9,9E9,9E9,9E9,9E9]],speed,z0,extruder\WObj:=WObj0;
MoveL [[285.95,-127.66,300],[0,-0.016652,0.999861,0],[0,-1,-1,0],[0,9E9,9E9,9E9,9E9,9E9]],speed,z0,extruder\WObj:=WObj0;
MoveL [[272.34,-126.76,300],[0,-0.049847,0.998757,0],[0,-1,-1,0],[0,9E9,9E9,9E9,9E9,9E9]],speed,z0,extruder\WObj:=WObj0;
MoveL [[258.83,-124.93,300],[0,-0.085758,0.996316,0],[0,-1,-1,0],[0,9E9,9E9,9E9,9E9,9E9]],speed,z0,extruder\WObj:=WObj0;
MoveL [[245.5,-122.08,300],[0,-0.124595,0.992208,0],[0,-1,-1,0],[0,9E9,9E9,9E9,9E9,9E9]],speed,z0,extruder\WObj:=WObj0;
MoveL [[232.44,-118.16,300],[0,-0.166476,0.986045,0],[0,-1,-1,0],[0,9E9,9E9,9E9,9E9,9E9]],speed,z0,extruder\WObj:=WObj0;
MoveL [[219.77,-113.11,300],[0,-0.211381,0.977404,0],[0,-1,-1,0],[0,9E9,9E9,9E9,9E9,9E9]],speed,z0,extruder\WObj:=WObj0;
MoveL [[214.54,-115.58,300],[0,0.800949,0.598732,0],[0,-1,-1,0],[0,9E9,9E9,9E9,9E9,9E9]],speed,z0,extruder\WObj:=WObj0;
MoveL [[218.88,-128.51,300],[0,0.822925,0.568151,0],[0,-1,-1,0],[0,9E9,9E9,9E9,9E9,9E9]],speed,z0,extruder\WObj:=WObj0;
MoveL [[224.23,-141.05,300],[0,0.845591,0.533831,0],[0,-1,-1,0],[0,9E9,9E9,9E9,9E9,9E9]],speed,z0,extruder\WObj:=WObj0;
MoveL [[230.63,-153.09,300],[0,0.868603,0.495509,0],[0,-1,-1,0],[0,9E9,9E9,9E9,9E9,9E9]],speed,z0,extruder\WObj:=WObj0;
MoveL [[238.12,-164.48,300],[0,0.891532,0.452959,0],[0,-1,-1,0],[0,9E9,9E9,9E9,9E9,9E9]],speed,z0,extruder\WObj:=WObj0;
MoveL [[238.11,-164.49,300],[0,0.930325,-0.366736,0],[0,-1,-1,0],[0,9E9,9E9,9E9,9E9,9E9]],speed,z0,extruder\WObj:=WObj0;
MoveL [[268.64,-135.99,300],[0,0.930325,-0.366736,0],[0,-1,-1,0],[0,9E9,9E9,9E9,9E9,9E9]],speed,z0,extruder\WObj:=WObj0;
MoveL [[299.17,-107.5,300],[0,0.930325,-0.366736,0],[0,-1,-1,0],[0,9E9,9E9,9E9,9E9,9E9]],speed,z0,extruder\WObj:=WObj0;
MoveL [[329.7,-79,300],[0,0.930325,-0.366736,0],[0,-1,-1,0],[0,9E9,9E9,9E9,9E9,9E9]],speed,z0,extruder\WObj:=WObj0;
MoveL [[360.23,-50.5,300],[0,0.930325,-0.366736,0],[0,-1,-1,0],[0,9E9,9E9,9E9,9E9,9E9]],speed,z0,extruder\WObj:=WObj0;
MoveL [[390.76,-22,300],[0,0.930325,-0.366736,0],[0,-1,-1,0],[0,9E9,9E9,9E9,9E9,9E9]],speed,z0,extruder\WObj:=WObj0;
MoveL [[421.29,6.5,300],[0,0.930325,-0.366736,0],[0,-1,-1,0],[0,9E9,9E9,9E9,9E9,9E9]],speed,z0,extruder\WObj:=WObj0;
MoveL [[451.82,34.99,300],[0,0.930325,-0.366736,0],[0,-1,-1,0],[0,9E9,9E9,9E9,9E9,9E9]],speed,z0,extruder\WObj:=WObj0;
MoveL [[482.34,63.49,300],[0,0.930325,-0.366736,0],[0,-1,-1,0],[0,9E9,9E9,9E9,9E9,9E9]],speed,z0,extruder\WObj:=WObj0;
MoveL [[512.87,91.99,300],[0,0.930325,-0.366736,0],[0,-1,-1,0],[0,9E9,9E9,9E9,9E9,9E9]],speed,z0,extruder\WObj:=WObj0;
MoveL [[543.4,120.49,300],[0,0.930325,-0.366736,0],[0,-1,-1,0],[0,9E9,9E9,9E9,9E9,9E9]],speed,z0,extruder\WObj:=WObj0;
ENDPROC
ENDMODULE