! TACO Target Robot: GORT
MODULE MainModule
VAR speeddata speed:=[10,24,5000,1000];
PERS tooldata custom_tool1 := [TRUE, [[0,0,0], [1,0,0,0]], [5,[0.00,0.00,10.00],[1,0,0,0],0,0,0]];
PROC Main()
ConfL \Off;
ConfJ \Off;
MoveL [[288,-42.57,471],[0,0.707107,0.707107,0],[0,-1,-1,0],[0,9E9,9E9,9E9,9E9,9E9]],speed,z10,custom_tool1\WObj:=WObj0;
MoveL [[293.76,-42.57,471],[0,0.707107,0.707107,0],[0,-1,-1,0],[0,9E9,9E9,9E9,9E9,9E9]],speed,z10,custom_tool1\WObj:=WObj0;
MoveL [[299.53,-42.57,471],[0,0.707107,0.707107,0],[0,-1,-1,0],[0,9E9,9E9,9E9,9E9,9E9]],speed,z10,custom_tool1\WObj:=WObj0;
MoveL [[305.29,-42.57,471],[0,0.707107,0.707107,0],[0,-1,-1,0],[0,9E9,9E9,9E9,9E9,9E9]],speed,z10,custom_tool1\WObj:=WObj0;
MoveL [[311.06,-42.57,471],[0,0.707107,0.707107,0],[0,-1,-1,0],[0,9E9,9E9,9E9,9E9,9E9]],speed,z10,custom_tool1\WObj:=WObj0;
MoveL [[316.82,-42.57,471],[0,0.707107,0.707107,0],[0,-1,-1,0],[0,9E9,9E9,9E9,9E9,9E9]],speed,z10,custom_tool1\WObj:=WObj0;
MoveL [[322.59,-42.57,471],[0,0.707107,0.707107,0],[0,-1,-1,0],[0,9E9,9E9,9E9,9E9,9E9]],speed,z10,custom_tool1\WObj:=WObj0;
MoveL [[328.35,-42.57,471],[0,0.707107,0.707107,0],[0,-1,-1,0],[0,9E9,9E9,9E9,9E9,9E9]],speed,z10,custom_tool1\WObj:=WObj0;
MoveL [[334.12,-42.57,471],[0,0.707107,0.707107,0],[0,-1,-1,0],[0,9E9,9E9,9E9,9E9,9E9]],speed,z10,custom_tool1\WObj:=WObj0;
MoveL [[339.88,-42.57,471],[0,0.707107,0.707107,0],[0,-1,-1,0],[0,9E9,9E9,9E9,9E9,9E9]],speed,z10,custom_tool1\WObj:=WObj0;
MoveL [[345.65,-42.57,471],[0,0.707107,0.707107,0],[0,-1,-1,0],[0,9E9,9E9,9E9,9E9,9E9]],speed,z10,custom_tool1\WObj:=WObj0;
MoveL [[351.41,-42.57,471],[0,0.707107,0.707107,0],[0,-1,-1,0],[0,9E9,9E9,9E9,9E9,9E9]],speed,z10,custom_tool1\WObj:=WObj0;
MoveL [[357.18,-42.57,471],[0,0.707107,0.707107,0],[0,-1,-1,0],[0,9E9,9E9,9E9,9E9,9E9]],speed,z10,custom_tool1\WObj:=WObj0;
MoveL [[362.94,-42.57,471],[0,0.707107,0.707107,0],[0,-1,-1,0],[0,9E9,9E9,9E9,9E9,9E9]],speed,z10,custom_tool1\WObj:=WObj0;
MoveL [[368.71,-42.57,471],[0,0.707107,0.707107,0],[0,-1,-1,0],[0,9E9,9E9,9E9,9E9,9E9]],speed,z10,custom_tool1\WObj:=WObj0;
MoveL [[374.47,-42.57,471],[0,0.707107,0.707107,0],[0,-1,-1,0],[0,9E9,9E9,9E9,9E9,9E9]],speed,z10,custom_tool1\WObj:=WObj0;
MoveL [[380.24,-42.57,471],[0,0.707107,0.707107,0],[0,-1,-1,0],[0,9E9,9E9,9E9,9E9,9E9]],speed,z10,custom_tool1\WObj:=WObj0;
MoveL [[386,-42.57,471],[0,0.707107,0.707107,0],[0,-1,-1,0],[0,9E9,9E9,9E9,9E9,9E9]],speed,z10,custom_tool1\WObj:=WObj0;
MoveL [[391.77,-42.57,471],[0,0.707107,0.707107,0],[0,-1,-1,0],[0,9E9,9E9,9E9,9E9,9E9]],speed,z10,custom_tool1\WObj:=WObj0;
MoveL [[397.53,-42.57,471],[0,0.707107,0.707107,0],[0,-1,-1,0],[0,9E9,9E9,9E9,9E9,9E9]],speed,z10,custom_tool1\WObj:=WObj0;
MoveL [[403.02,-42.3,471],[0,0,1,0],[0,-1,-1,0],[0,9E9,9E9,9E9,9E9,9E9]],speed,z10,custom_tool1\WObj:=WObj0;
MoveL [[403.02,-36.53,471],[0,0,1,0],[0,-1,-1,0],[0,9E9,9E9,9E9,9E9,9E9]],speed,z10,custom_tool1\WObj:=WObj0;
MoveL [[403.02,-30.77,471],[0,0,1,0],[0,-1,-1,0],[0,9E9,9E9,9E9,9E9,9E9]],speed,z10,custom_tool1\WObj:=WObj0;
MoveL [[403.02,-25,471],[0,0,1,0],[0,-1,-1,0],[0,9E9,9E9,9E9,9E9,9E9]],speed,z10,custom_tool1\WObj:=WObj0;
MoveL [[403.02,-19.24,471],[0,0,1,0],[0,-1,-1,0],[0,9E9,9E9,9E9,9E9,9E9]],speed,z10,custom_tool1\WObj:=WObj0;
MoveL [[403.02,-13.47,471],[0,0,1,0],[0,-1,-1,0],[0,9E9,9E9,9E9,9E9,9E9]],speed,z10,custom_tool1\WObj:=WObj0;
MoveL [[403.02,-7.71,471],[0,0,1,0],[0,-1,-1,0],[0,9E9,9E9,9E9,9E9,9E9]],speed,z10,custom_tool1\WObj:=WObj0;
MoveL [[403.02,-1.94,471],[0,0,1,0],[0,-1,-1,0],[0,9E9,9E9,9E9,9E9,9E9]],speed,z10,custom_tool1\WObj:=WObj0;
MoveL [[403.02,3.82,471],[0,0,1,0],[0,-1,-1,0],[0,9E9,9E9,9E9,9E9,9E9]],speed,z10,custom_tool1\WObj:=WObj0;
MoveL [[403.02,9.59,471],[0,0,1,0],[0,-1,-1,0],[0,9E9,9E9,9E9,9E9,9E9]],speed,z10,custom_tool1\WObj:=WObj0;
MoveL [[403.02,15.35,471],[0,0,1,0],[0,-1,-1,0],[0,9E9,9E9,9E9,9E9,9E9]],speed,z10,custom_tool1\WObj:=WObj0;
MoveL [[403.02,21.12,471],[0,0,1,0],[0,-1,-1,0],[0,9E9,9E9,9E9,9E9,9E9]],speed,z10,custom_tool1\WObj:=WObj0;
MoveL [[403.02,26.88,471],[0,0,1,0],[0,-1,-1,0],[0,9E9,9E9,9E9,9E9,9E9]],speed,z10,custom_tool1\WObj:=WObj0;
MoveL [[403.02,32.65,471],[0,0,1,0],[0,-1,-1,0],[0,9E9,9E9,9E9,9E9,9E9]],speed,z10,custom_tool1\WObj:=WObj0;
MoveL [[403.02,38.41,471],[0,0,1,0],[0,-1,-1,0],[0,9E9,9E9,9E9,9E9,9E9]],speed,z10,custom_tool1\WObj:=WObj0;
MoveL [[403.02,44.18,471],[0,0,1,0],[0,-1,-1,0],[0,9E9,9E9,9E9,9E9,9E9]],speed,z10,custom_tool1\WObj:=WObj0;
MoveL [[403.02,49.94,471],[0,0,1,0],[0,-1,-1,0],[0,9E9,9E9,9E9,9E9,9E9]],speed,z10,custom_tool1\WObj:=WObj0;
MoveL [[403.02,55.71,471],[0,0,1,0],[0,-1,-1,0],[0,9E9,9E9,9E9,9E9,9E9]],speed,z10,custom_tool1\WObj:=WObj0;
MoveL [[403.02,61.47,471],[0,0,1,0],[0,-1,-1,0],[0,9E9,9E9,9E9,9E9,9E9]],speed,z10,custom_tool1\WObj:=WObj0;
MoveL [[403.02,67.24,471],[0,0,1,0],[0,-1,-1,0],[0,9E9,9E9,9E9,9E9,9E9]],speed,z10,custom_tool1\WObj:=WObj0;
MoveL [[403.02,73,471],[0,-0.707107,0.707107,0],[0,-1,-1,0],[0,9E9,9E9,9E9,9E9,9E9]],speed,z10,custom_tool1\WObj:=WObj0;
MoveL [[397.26,73,471],[0,-0.707107,0.707107,0],[0,-1,-1,0],[0,9E9,9E9,9E9,9E9,9E9]],speed,z10,custom_tool1\WObj:=WObj0;
MoveL [[391.5,73,471],[0,-0.707107,0.707107,0],[0,-1,-1,0],[0,9E9,9E9,9E9,9E9,9E9]],speed,z10,custom_tool1\WObj:=WObj0;
MoveL [[385.73,73,471],[0,-0.707107,0.707107,0],[0,-1,-1,0],[0,9E9,9E9,9E9,9E9,9E9]],speed,z10,custom_tool1\WObj:=WObj0;
MoveL [[379.97,73,471],[0,-0.707107,0.707107,0],[0,-1,-1,0],[0,9E9,9E9,9E9,9E9,9E9]],speed,z10,custom_tool1\WObj:=WObj0;
MoveL [[374.2,73,471],[0,-0.707107,0.707107,0],[0,-1,-1,0],[0,9E9,9E9,9E9,9E9,9E9]],speed,z10,custom_tool1\WObj:=WObj0;
MoveL [[368.44,73,471],[0,-0.707107,0.707107,0],[0,-1,-1,0],[0,9E9,9E9,9E9,9E9,9E9]],speed,z10,custom_tool1\WObj:=WObj0;
MoveL [[362.67,73,471],[0,-0.707107,0.707107,0],[0,-1,-1,0],[0,9E9,9E9,9E9,9E9,9E9]],speed,z10,custom_tool1\WObj:=WObj0;
MoveL [[356.91,73,471],[0,-0.707107,0.707107,0],[0,-1,-1,0],[0,9E9,9E9,9E9,9E9,9E9]],speed,z10,custom_tool1\WObj:=WObj0;
MoveL [[351.14,73,471],[0,-0.707107,0.707107,0],[0,-1,-1,0],[0,9E9,9E9,9E9,9E9,9E9]],speed,z10,custom_tool1\WObj:=WObj0;
MoveL [[345.38,73,471],[0,-0.707107,0.707107,0],[0,-1,-1,0],[0,9E9,9E9,9E9,9E9,9E9]],speed,z10,custom_tool1\WObj:=WObj0;
MoveL [[339.61,73,471],[0,-0.707107,0.707107,0],[0,-1,-1,0],[0,9E9,9E9,9E9,9E9,9E9]],speed,z10,custom_tool1\WObj:=WObj0;
MoveL [[333.85,73,471],[0,-0.707107,0.707107,0],[0,-1,-1,0],[0,9E9,9E9,9E9,9E9,9E9]],speed,z10,custom_tool1\WObj:=WObj0;
MoveL [[328.08,73,471],[0,-0.707107,0.707107,0],[0,-1,-1,0],[0,9E9,9E9,9E9,9E9,9E9]],speed,z10,custom_tool1\WObj:=WObj0;
MoveL [[322.32,73,471],[0,-0.707107,0.707107,0],[0,-1,-1,0],[0,9E9,9E9,9E9,9E9,9E9]],speed,z10,custom_tool1\WObj:=WObj0;
MoveL [[316.55,73,471],[0,-0.707107,0.707107,0],[0,-1,-1,0],[0,9E9,9E9,9E9,9E9,9E9]],speed,z10,custom_tool1\WObj:=WObj0;
MoveL [[310.79,73,471],[0,-0.707107,0.707107,0],[0,-1,-1,0],[0,9E9,9E9,9E9,9E9,9E9]],speed,z10,custom_tool1\WObj:=WObj0;
MoveL [[305.02,73,471],[0,-0.707107,0.707107,0],[0,-1,-1,0],[0,9E9,9E9,9E9,9E9,9E9]],speed,z10,custom_tool1\WObj:=WObj0;
MoveL [[299.26,73,471],[0,-0.707107,0.707107,0],[0,-1,-1,0],[0,9E9,9E9,9E9,9E9,9E9]],speed,z10,custom_tool1\WObj:=WObj0;
MoveL [[293.49,73,471],[0,-0.707107,0.707107,0],[0,-1,-1,0],[0,9E9,9E9,9E9,9E9,9E9]],speed,z10,custom_tool1\WObj:=WObj0;
MoveL [[288,72.73,471],[0,1,0,0],[0,-1,-1,0],[0,9E9,9E9,9E9,9E9,9E9]],speed,z10,custom_tool1\WObj:=WObj0;
MoveL [[288,66.96,471],[0,1,0,0],[0,-1,-1,0],[0,9E9,9E9,9E9,9E9,9E9]],speed,z10,custom_tool1\WObj:=WObj0;
MoveL [[288,61.2,471],[0,1,0,0],[0,-1,-1,0],[0,9E9,9E9,9E9,9E9,9E9]],speed,z10,custom_tool1\WObj:=WObj0;
MoveL [[288,55.43,471],[0,1,0,0],[0,-1,-1,0],[0,9E9,9E9,9E9,9E9,9E9]],speed,z10,custom_tool1\WObj:=WObj0;
MoveL [[288,49.67,471],[0,1,0,0],[0,-1,-1,0],[0,9E9,9E9,9E9,9E9,9E9]],speed,z10,custom_tool1\WObj:=WObj0;
MoveL [[288,43.9,471],[0,1,0,0],[0,-1,-1,0],[0,9E9,9E9,9E9,9E9,9E9]],speed,z10,custom_tool1\WObj:=WObj0;
MoveL [[288,38.14,471],[0,1,0,0],[0,-1,-1,0],[0,9E9,9E9,9E9,9E9,9E9]],speed,z10,custom_tool1\WObj:=WObj0;
MoveL [[288,32.37,471],[0,1,0,0],[0,-1,-1,0],[0,9E9,9E9,9E9,9E9,9E9]],speed,z10,custom_tool1\WObj:=WObj0;
MoveL [[288,26.61,471],[0,1,0,0],[0,-1,-1,0],[0,9E9,9E9,9E9,9E9,9E9]],speed,z10,custom_tool1\WObj:=WObj0;
MoveL [[288,20.84,471],[0,1,0,0],[0,-1,-1,0],[0,9E9,9E9,9E9,9E9,9E9]],speed,z10,custom_tool1\WObj:=WObj0;
MoveL [[288,15.08,471],[0,1,0,0],[0,-1,-1,0],[0,9E9,9E9,9E9,9E9,9E9]],speed,z10,custom_tool1\WObj:=WObj0;
MoveL [[288,9.31,471],[0,1,0,0],[0,-1,-1,0],[0,9E9,9E9,9E9,9E9,9E9]],speed,z10,custom_tool1\WObj:=WObj0;
MoveL [[288,3.55,471],[0,1,0,0],[0,-1,-1,0],[0,9E9,9E9,9E9,9E9,9E9]],speed,z10,custom_tool1\WObj:=WObj0;
MoveL [[288,-2.22,471],[0,1,0,0],[0,-1,-1,0],[0,9E9,9E9,9E9,9E9,9E9]],speed,z10,custom_tool1\WObj:=WObj0;
MoveL [[288,-7.98,471],[0,1,0,0],[0,-1,-1,0],[0,9E9,9E9,9E9,9E9,9E9]],speed,z10,custom_tool1\WObj:=WObj0;
MoveL [[288,-13.75,471],[0,1,0,0],[0,-1,-1,0],[0,9E9,9E9,9E9,9E9,9E9]],speed,z10,custom_tool1\WObj:=WObj0;
MoveL [[288,-19.51,471],[0,1,0,0],[0,-1,-1,0],[0,9E9,9E9,9E9,9E9,9E9]],speed,z10,custom_tool1\WObj:=WObj0;
MoveL [[288,-25.28,471],[0,1,0,0],[0,-1,-1,0],[0,9E9,9E9,9E9,9E9,9E9]],speed,z10,custom_tool1\WObj:=WObj0;
MoveL [[288,-31.04,471],[0,1,0,0],[0,-1,-1,0],[0,9E9,9E9,9E9,9E9,9E9]],speed,z10,custom_tool1\WObj:=WObj0;
MoveL [[288,-36.8,471],[0,1,0,0],[0,-1,-1,0],[0,9E9,9E9,9E9,9E9,9E9]],speed,z10,custom_tool1\WObj:=WObj0;
ENDPROC
ENDMODULE
